X:1
T: Dumbarton Rock
C: Carl Volti
P: Adapted from
R:Reel
Q: 232
K:A
M:4/4
L:1/8
|:A|EA AB cB AB|ce ef e3A|EA AB cB AE|FB Bc B3A|
EA AB cB AB|ce ef e3e|ag fe fd AF|DF Bc B3d|
ce ef ae cA|ce ef e3d|ce ef ae cA|FB Bc B3d|
ce ef ae cA|ce ef e3e|ag fe ae cA|FB Ge A3:|
